icons/1_Primary/Exaroton.svg

<svg xmlns="http://www.w3.org/2000/svg" width="1024" height="1024" fill="none">
   <g clip-path="url(#a)">
      <path fill="#98DC9A" d="M512 1024c282.77 0 512-229.23 512-512S794.77 0 512 0 0 229.23 0 512s229.23 512 512 512Z"/>
      <path fill="#fff" d="M773.38 439.94a19.86 19.86 0 0 0 5.818-14.04 19.854 19.854 0 0 0-5.818-14.04l-162-162a19.833 19.833 0 0 0-14.04-5.818 19.854 19.854 0 0 0-14.04 5.818l-58 58a19.854 19.854 0 0 1-28.08 0l-57.56-57.76a19.833 19.833 0 0 0-14.04-5.818 19.854 19.854 0 0 0-14.04 5.818l-161.77 162a19.849 19.849 0 0 0 0 28.08l58 58a19.849 19.849 0 0 1 0 28.08l-58 57.49a19.849 19.849 0 0 0 0 28.08l162 162a19.854 19.854 0 0 0 28.08 0l58-58a19.833 19.833 0 0 1 14.04-5.818 19.854 19.854 0 0 1 14.04 5.818l58 58a19.854 19.854 0 0 0 28.08 0l162-162a19.86 19.86 0 0 0 5.818-14.04 19.854 19.854 0 0 0-5.818-14.04l-58-58a19.854 19.854 0 0 1 0-28.08L773.38 440v-.06ZM656.53 543.68c0 62.3-50.8 113.1-113.1 113.1h-63.64c-62.3 0-113.1-50.8-113.1-113.1V480c0-62.3 50.8-113.1 113.1-113.1h63.64c62.3 0 113.1 50.8 113.1 113.1v63.68Z"/>
   </g>
   <defs>
      <clipPath id="a">
         <path fill="#fff" d="M0 0h1024v1024H0z"/>
      </clipPath>
   </defs>
</svg>

<svg width="1024" height="1024" viewBox="0 0 1024 1024" fill="none" xmlns="http://www.w3.org/2000/svg">
<g clip-path="url(#clip0_2_2124)">
<path d="M512 1024C794.77 1024 1024 794.77 1024 512C1024 229.23 794.77 0 512 0C229.23 0 0 229.23 0 512C0 794.77 229.23 1024 512 1024Z" fill="#98DC9A"/>
<path d="M773.38 439.94C775.224 438.096 776.688 435.908 777.686 433.499C778.684 431.09 779.198 428.508 779.198 425.9C779.198 423.292 778.684 420.71 777.686 418.301C776.688 415.892 775.224 413.703 773.38 411.86L611.38 249.86C609.537 248.015 607.348 246.552 604.939 245.554C602.53 244.556 599.948 244.042 597.34 244.042C594.732 244.042 592.15 244.556 589.741 245.554C587.332 246.552 585.143 248.015 583.3 249.86L525.3 307.86C523.457 309.704 521.268 311.167 518.859 312.166C516.45 313.164 513.868 313.678 511.26 313.678C508.652 313.678 506.07 313.164 503.661 312.166C501.252 311.167 499.063 309.704 497.22 307.86L439.66 250.1C437.817 248.255 435.628 246.792 433.219 245.794C430.81 244.796 428.228 244.282 425.62 244.282C423.012 244.282 420.43 244.796 418.021 245.794C415.612 246.792 413.423 248.255 411.58 250.1L249.81 412.1C247.966 413.943 246.502 416.132 245.504 418.541C244.506 420.95 243.992 423.532 243.992 426.14C243.992 428.748 244.506 431.33 245.504 433.739C246.502 436.148 247.966 438.336 249.81 440.18L307.81 498.18C309.654 500.023 311.118 502.212 312.116 504.621C313.114 507.03 313.628 509.612 313.628 512.22C313.628 514.827 313.114 517.41 312.116 519.819C311.118 522.228 309.654 524.416 307.81 526.26L249.81 583.75C247.966 585.593 246.502 587.782 245.504 590.191C244.506 592.6 243.992 595.182 243.992 597.79C243.992 600.397 244.506 602.98 245.504 605.389C246.502 607.798 247.966 609.986 249.81 611.83L411.81 773.83C413.653 775.674 415.842 777.137 418.251 778.136C420.66 779.134 423.242 779.648 425.85 779.648C428.458 779.648 431.04 779.134 433.449 778.136C435.858 777.137 438.047 775.674 439.89 773.83L497.89 715.83C499.733 713.985 501.922 712.522 504.331 711.524C506.74 710.526 509.322 710.012 511.93 710.012C514.538 710.012 517.12 710.526 519.529 711.524C521.938 712.522 524.127 713.985 525.97 715.83L583.97 773.83C585.813 775.674 588.002 777.137 590.411 778.136C592.82 779.134 595.402 779.648 598.01 779.648C600.618 779.648 603.2 779.134 605.609 778.136C608.018 777.137 610.207 775.674 612.05 773.83L774.05 611.83C775.894 609.986 777.358 607.798 778.356 605.389C779.354 602.98 779.868 600.397 779.868 597.79C779.868 595.182 779.354 592.6 778.356 590.191C777.358 587.782 775.894 585.593 774.05 583.75L716.05 525.75C714.206 523.906 712.743 521.718 711.744 519.309C710.746 516.9 710.232 514.318 710.232 511.71C710.232 509.102 710.746 506.52 711.744 504.111C712.743 501.702 714.206 499.513 716.05 497.67L773.38 440V439.94ZM656.53 543.68C656.53 605.98 605.73 656.78 543.43 656.78H479.79C417.49 656.78 366.69 605.98 366.69 543.68V480C366.69 417.7 417.49 366.9 479.79 366.9H543.43C605.73 366.9 656.53 417.7 656.53 480V543.68Z" fill="white"/>
</g>
<defs>
<clipPath id="clip0_2_2124">
<rect width="1024" height="1024" fill="white"/>
</clipPath>
</defs>
</svg>
